build/svg/cmd/lc_photoalbumdialog.svg

<?xml version="1.0" encoding="UTF-8" standalone="no"?>
<svg
   xmlns:dc="http://purl.org/dc/elements/1.1/"
   xmlns:cc="http://creativecommons.org/ns#"
   xmlns:rdf="http://www.w3.org/1999/02/22-rdf-syntax-ns#"
   xmlns:svg="http://www.w3.org/2000/svg"
   xmlns="http://www.w3.org/2000/svg"
   xmlns:sodipodi="http://sodipodi.sourceforge.net/DTD/sodipodi-0.dtd"
   xmlns:inkscape="http://www.inkscape.org/namespaces/inkscape"
   viewBox="0 0 24 24"
   version="1.1"
   id="svg4"
   sodipodi:docname="lc_photoalbumdialog.svg"
   inkscape:export-filename="/home/jupiter007/Libreoffice yaru theme fullcolor/build/cmd/lc_photoalbumdialog.png"
   inkscape:export-xdpi="95"
   inkscape:export-ydpi="95"
   inkscape:version="0.92.5 (2060ec1f9f, 2020-04-08)">
  <metadata
     id="metadata10">
    <rdf:RDF>
      <cc:Work
         rdf:about="">
        <dc:format>image/svg+xml</dc:format>
        <dc:type
           rdf:resource="http://purl.org/dc/dcmitype/StillImage" />
      </cc:Work>
    </rdf:RDF>
  </metadata>
  <defs
     id="defs8" />
  <sodipodi:namedview
     pagecolor="#ffffff"
     bordercolor="#666666"
     borderopacity="1"
     objecttolerance="10"
     gridtolerance="10"
     guidetolerance="10"
     inkscape:pageopacity="0"
     inkscape:pageshadow="2"
     inkscape:window-width="1920"
     inkscape:window-height="1011"
     id="namedview6"
     showgrid="true"
     inkscape:zoom="27.812867"
     inkscape:cx="8.3673263"
     inkscape:cy="13.698243"
     inkscape:window-x="0"
     inkscape:window-y="32"
     inkscape:window-maximized="1"
     inkscape:current-layer="svg4">
    <inkscape:grid
       type="xygrid"
       id="grid829" />
  </sodipodi:namedview>
  <path
     style="font-style:normal;font-variant:normal;font-weight:normal;font-stretch:normal;font-size:15px;line-height:125%;font-family:Ubuntu;-inkscape-font-specification:Ubuntu;text-align:center;letter-spacing:0px;word-spacing:0px;writing-mode:lr-tb;text-anchor:middle;display:inline;opacity:0.6;fill:#000000;fill-opacity:1;stroke:none;stroke-width:0.99980211"
     d="M 6,2 C 4.7418001,2.0145 3.8211091,1.969396 3.0683591,2.3847656 2.6919892,2.5924256 2.3951281,2.9441525 2.2304681,3.3828125 2.0657981,3.8214825 2.0058591,4.3424 2.0058591,5 v 1.4882804 8.5124416 c 0,0.65761 0.0599,1.178577 0.224609,1.617188 0.16468,0.438611 0.461531,0.788524 0.837891,0.996093 0.75272,0.41513 1.673541,0.371649 2.9316409,0.386719 h 0.002 10.005859 0.0039 c 1.25819,-0.0145 2.178891,0.0306 2.931641,-0.384766 0.37637,-0.20766 0.673221,-0.559386 0.837891,-0.998046 0.164539,-0.438671 0.224618,-0.959578 0.224618,-1.617188 V 6.4667964 5 c 0,-0.6576 -0.0599,-1.1785775 -0.224609,-1.6171875 C 19.61662,2.9442125 19.319769,2.5942787 18.943409,2.3867188 18.190639,1.9715888 17.269808,2.01508 16.011718,2 h -0.002 -10.005859 z"
     id="path831"
     inkscape:connector-curvature="0"
     sodipodi:nodetypes="cccscsccccccccscscccccc" />
  <path
     sodipodi:nodetypes="cccccccsccccccc"
     style="opacity:1;vector-effect:none;fill:#d85eca;fill-opacity:1;stroke:none;stroke-width:1;stroke-linecap:round;stroke-linejoin:bevel;stroke-miterlimit:4;stroke-dasharray:none;stroke-dashoffset:0;stroke-opacity:1"
     d="m 10.989228,3.0271848 c -1.5565809,0.010796 -5.10999,-0.011752 -6.6599409,0.038775 -0.461229,0.042668 -1.016188,0.2064194 -1.15534,0.7099668 -0.218994,0.6353464 -0.108414,1.3337871 -0.145796,1.9819241 -0.0078,2.2970847 -0.02297,7.5965673 0.02152,9.8859193 0.0391,0.461929 0.202551,1.012666 0.698756,1.163666 0.632456,0.225082 1.284144,0.12274 1.935974,0.154298 1.424235,0.0068 4.8505629,0.01102 6.2764199,0.01131 1.704531,3.5e-4 3.408388,-0.005 5.10719,-0.01851 0.511911,-0.01201 1.183699,0.01993 1.584745,-0.405191 0.421097,-0.539783 0.287073,-1.268021 0.322745,-1.903787 0.01187,-2.444323 0.02769,-7.9112346 -0.0219,-10.3569334 C 18.904325,3.8865822 18.783609,3.4256704 18.378462,3.2441473 17.710293,2.9500499 16.952257,3.0761284 16.252541,3.0385746 14.498134,3.026772 12.743667,3.0260902 10.989228,3.0271848 Z"
     id="path833"
     inkscape:connector-curvature="0" />
  <path
     sodipodi:nodetypes="cccscsccccccccscscccccc"
     inkscape:connector-curvature="0"
     id="path4237-1"
     d="M 9.0107719,6.0000006 C 7.752572,6.0145006 6.831881,5.9693966 6.079131,6.3847662 5.7027611,6.5924262 5.4059,6.9441531 5.24124,7.3828131 5.07657,7.8214831 5.016631,8.3424006 5.016631,9.0000006 v 1.4882804 8.512442 c 0,0.65761 0.0599,1.178577 0.224609,1.617188 0.16468,0.438611 0.461531,0.788524 0.837891,0.996093 0.75272,0.41513 1.673541,0.371649 2.9316409,0.386719 h 0.002 10.0058591 0.0039 c 1.25819,-0.0145 2.178891,0.0306 2.931641,-0.384766 0.37637,-0.20766 0.673221,-0.559386 0.837891,-0.998046 0.164539,-0.438671 0.224618,-0.959578 0.224618,-1.617188 V 10.466797 9.0000006 c 0,-0.6576 -0.0599,-1.1785775 -0.224609,-1.6171875 -0.16468,-0.4386 -0.461531,-0.7885338 -0.837891,-0.9960937 -0.75277,-0.41513 -1.673601,-0.3716388 -2.931691,-0.3867188 h -0.002 -10.0058591 z"
     style="font-style:normal;font-variant:normal;font-weight:normal;font-stretch:normal;font-size:15px;line-height:125%;font-family:Ubuntu;-inkscape-font-specification:Ubuntu;text-align:center;letter-spacing:0px;word-spacing:0px;writing-mode:lr-tb;text-anchor:middle;display:inline;opacity:0.6;fill:#000000;fill-opacity:1;stroke:none;stroke-width:0.99980211" />
  <path
     inkscape:connector-curvature="0"
     id="path1993"
     d="M 14,7.0271854 C 12.443419,7.0379814 8.8900099,7.0154334 7.340059,7.0659604 6.87883,7.1086284 6.323871,7.2723798 6.184719,7.7759272 5.965725,8.4112736 6.076305,9.1097143 6.038923,9.7578513 c -0.0078,2.2970847 -0.02297,7.5965677 0.02152,9.8859197 0.0391,0.461929 0.202551,1.012666 0.698756,1.163666 0.632456,0.225082 1.284144,0.12274 1.935974,0.154298 1.424235,0.0068 4.850563,0.01102 6.27642,0.01131 1.704531,3.5e-4 3.408388,-0.005 5.10719,-0.01851 0.511911,-0.01201 1.183699,0.01993 1.584745,-0.405191 0.421097,-0.539783 0.287073,-1.268021 0.322745,-1.903787 0.01187,-2.444323 0.02769,-7.911235 -0.0219,-10.3569338 C 21.915097,7.8865828 21.794381,7.425671 21.389234,7.2441479 20.721065,6.9500505 19.963029,7.076129 19.263313,7.0385752 17.508906,7.0267726 15.754439,7.0260908 14,7.0271854 Z"
     style="opacity:1;vector-effect:none;fill:#d85eca;fill-opacity:1;stroke:none;stroke-width:1;stroke-linecap:round;stroke-linejoin:bevel;stroke-miterlimit:4;stroke-dasharray:none;stroke-dashoffset:0;stroke-opacity:1"
     sodipodi:nodetypes="cccccccsccccccc" />
  <path
     style="color:#000000;display:inline;overflow:visible;visibility:visible;opacity:1;fill:#ffffff;fill-opacity:1;fill-rule:nonzero;stroke:none;stroke-width:18.28524208;marker:none;enable-background:accumulate"
     d="M 11,12 8,18 H 19 L 15.5,14 14,16 Z"
     id="path1099"
     inkscape:connector-curvature="0"
     sodipodi:nodetypes="cccccc" />
  <path
     style="opacity:1;vector-effect:none;fill:#ffffff;fill-opacity:1;stroke:none;stroke-width:3;stroke-linecap:round;stroke-linejoin:bevel;stroke-miterlimit:4;stroke-dasharray:none;stroke-dashoffset:0;stroke-opacity:1"
     id="path3397"
     sodipodi:type="arc"
     sodipodi:cx="17.501921"
     sodipodi:cy="11.491527"
     sodipodi:rx="1.5"
     sodipodi:ry="1.5"
     sodipodi:start="6.2325882"
     sodipodi:end="6.2319424"
     sodipodi:open="true"
     d="m 19.000001,11.415663 a 1.5,1.5 0 0 1 -1.421975,1.573932 1.5,1.5 0 0 1 -1.574161,-1.421721 1.5,1.5 0 0 1 1.421467,-1.5743908 1.5,1.5 0 0 1 1.57462,1.4212128" />
</svg>

<svg xmlns="http://www.w3.org/2000/svg" viewBox="0 0 24 24"><path style="line-height:125%;-inkscape-font-specification:Ubuntu;text-align:center" d="M6 2c-1.258.014-2.179-.03-2.932.385a1.88 1.88 0 00-.838.998c-.164.438-.224.96-.224 1.617v10.001c0 .657.06 1.178.224 1.617.165.439.462.788.838.996.753.415 1.674.372 2.932.387h10.012c1.258-.015 2.179.03 2.931-.385a1.88 1.88 0 00.838-.998c.165-.439.225-.96.225-1.617V5c0-.658-.06-1.179-.225-1.617a1.875 1.875 0 00-.838-.996c-.752-.415-1.673-.372-2.931-.387H6.004z" font-weight="400" font-size="15" font-family="Ubuntu" letter-spacing="0" word-spacing="0" text-anchor="middle" opacity=".6"/><path d="M10.99 3.027c-1.557.011-5.11-.012-6.66.039-.462.043-1.017.206-1.156.71-.219.635-.108 1.334-.146 1.982-.008 2.297-.023 7.596.022 9.886.039.462.202 1.012.698 1.163.633.226 1.285.123 1.936.155 1.425.007 4.851.01 6.277.011 1.704 0 3.408-.005 5.107-.018.512-.012 1.184.02 1.585-.406.42-.54.287-1.268.323-1.903.011-2.445.027-7.912-.022-10.357-.05-.402-.17-.863-.576-1.045-.668-.294-1.426-.168-2.125-.205a715.985 715.985 0 00-5.264-.012z" fill="#d85eca"/><path d="M9.01 6c-1.257.015-2.178-.03-2.93.385a1.88 1.88 0 00-.839.998c-.164.438-.224.96-.224 1.617v10.001c0 .657.06 1.178.224 1.617.165.439.462.788.838.996.753.415 1.674.372 2.932.387h10.012c1.258-.015 2.178.03 2.931-.385a1.88 1.88 0 00.838-.998c.165-.439.225-.96.225-1.617V9c0-.658-.06-1.179-.225-1.617a1.875 1.875 0 00-.838-.996c-.753-.415-1.673-.372-2.932-.387H9.015z" style="line-height:125%;-inkscape-font-specification:Ubuntu;text-align:center" font-weight="400" font-size="15" font-family="Ubuntu" letter-spacing="0" word-spacing="0" text-anchor="middle" opacity=".6"/><path d="M14 7.027c-1.557.011-5.11-.012-6.66.039-.461.043-1.016.206-1.155.71-.22.635-.109 1.334-.146 1.982-.008 2.297-.023 7.596.021 9.886.04.462.203 1.012.7 1.163.632.226 1.283.123 1.935.155 1.424.007 4.85.01 6.277.011 1.704 0 3.408-.005 5.107-.018.512-.012 1.183.02 1.585-.406.42-.54.287-1.268.322-1.903.012-2.445.028-7.912-.022-10.357-.049-.402-.17-.863-.575-1.045-.668-.294-1.426-.168-2.126-.205A715.985 715.985 0 0014 7.027z" fill="#d85eca"/><path style="marker:none" d="M11 12l-3 6h11l-3.5-4-1.5 2z" color="#000" overflow="visible" fill="#fff"/><path d="M19 11.416a1.5 1.5 0 01-1.422 1.574 1.5 1.5 0 01-1.574-1.422 1.5 1.5 0 011.421-1.575A1.5 1.5 0 0119 11.415" fill="#fff"/></svg>
